packages/amis-editor-core/src/icons/v3/right-double-arrow.svg

<?xml version="1.0" encoding="UTF-8"?>
<svg width="16px" height="16px" viewBox="0 0 16 16" version="1.1" xmlns="http://www.w3.org/2000/svg" xmlns:xlink="http://www.w3.org/1999/xlink">
    <g id="4.图标元件/1.箭头/6.双右" stroke="none" stroke-width="1" fill="none" fill-rule="evenodd">
        <rect id="矩形" stroke="currentColor" fill="currentColor" opacity="0" x="0.5" y="0.5" width="15" height="15"></rect>
        <path d="M3.713,3.0012 L8.663,7.9502 L8.66,7.9542 L8.663,7.9572 L3.713,12.9072 L3,12.1942 L7.24,7.9542 L3,3.7142 L3.713,3.0012 Z M7.7099,3.0003 L12.6599,7.9493 L12.6559,7.9533 L12.6599,7.9563 L7.7099,12.9053 L6.9969,12.1923 L11.2369,7.9533 L6.9969,3.7133 L7.7099,3.0003 Z" id="图标-填色" fill="currentColor"></path>
    </g>
</svg>

<svg width="16" height="16" xmlns="http://www.w3.org/2000/svg"><path d="m3.713 3.001 4.95 4.95-.003.003.003.003-4.95 4.95L3 12.194l4.24-4.24L3 3.714l.713-.713Zm3.997 0 4.95 4.948-.004.004.004.003-4.95 4.95-.713-.714 4.24-4.239-4.24-4.24L7.71 3Z" fill="currentColor" fill-rule="evenodd"/></svg>
